outputs/icons/action/clock_outline_round.svg

<svg xmlns="http://www.w3.org/2000/svg" width="1200" height="1200" fill="none"><g clip-path="url(#a)"><path fill="#000" d="M599.5 100C323.5 100 100 324 100 600s223.5 500 499.5 500C876 1100 1100 876 1100 600S876 100 599.5 100m.5 900c-221 0-400-179-400-400s179-400 400-400 400 179 400 400-179 400-400 400m-11-650h-3c-20 0-36 16-36 36v236c0 17.5 9 34 24.5 43L782 789.5c17 10 39 5 49-12 10.5-17 5-39.5-12.5-49.5L625 613V386c0-20-16-36-36-36"/></g><defs><clipPath id="a"><path fill="#fff" d="M0 0h1200v1200H0z"/></clipPath></defs></svg>

<svg width="1200" height="1200" viewBox="0 0 1200 1200" fill="none" xmlns="http://www.w3.org/2000/svg"><g clip-path="url(#clip0_223_1873)"><path d="M599.5 100C323.5 100 100 324 100 600C100 876 323.5 1100 599.5 1100C876 1100 1100 876 1100 600C1100 324 876 100 599.5 100ZM600 1000C379 1000 200 821 200 600C200 379 379 200 600 200C821 200 1000 379 1000 600C1000 821 821 1000 600 1000ZM589 350H586C566 350 550 366 550 386V622C550 639.5 559 656 574.5 665L782 789.5C799 799.5 821 794.5 831 777.5C841.5 760.5 836 738 818.5 728L625 613V386C625 366 609 350 589 350Z" fill="#1D1E23"/></g><defs><clipPath id="clip0_223_1873"><path width="24" fill="white" d="M0 0H1200V1200H0V0z"/></clipPath></defs></svg>
